X: 23819
T: Little Katie Taylor
R: reel
M: 4/4
K: Dmixolydian
Dz FA GEFE|DEFA d2 ef|{f}g2 ag {e}f2 ed|cA~A2 ABcA|
Dz FA GEFE|DEFA d2 ef|{f}g2 ag {e}f2 df|edce d3 g||
fdfa gz ag|fdfa g2 ag|fdcA BGG2|ABcA d3 g|
fdfa gz ag|fdfa g2 ag|fdcA BGG2|ABcA d2 AF||

